packages/icons/src/siren.svg

<svg width="24" height="24" viewBox="0 0 24 24" fill="none" xmlns="http://www.w3.org/2000/svg">
<path fill-rule="evenodd" clip-rule="evenodd" d="M12 4C13.815 3.99997 15.559 4.70489 16.8642 5.96607C18.1694 7.22726 18.9338 8.94609 18.996 10.76L19 11V14.171C19.5537 14.367 20.0377 14.7211 20.3922 15.1895C20.7466 15.6578 20.9559 16.2199 20.994 16.806L21 17V20H3V17C3 15.694 3.835 14.582 5 14.17V11C5 9.14348 5.7375 7.36301 7.05025 6.05025C8.36301 4.7375 10.1435 4 12 4ZM18 16H6C5.75507 16 5.51866 16.09 5.33563 16.2527C5.15259 16.4155 5.03566 16.6397 5.007 16.883L5 17V18H19V17C19.0002 16.7746 18.9242 16.5558 18.7845 16.379C18.6447 16.2022 18.4493 16.0778 18.23 16.026L18.117 16.006L18 16ZM12 6C10.7115 6.00007 9.47284 6.49754 8.54222 7.38866C7.61161 8.27978 7.06092 9.49575 7.005 10.783L7 11V14H17V11C17 9.67392 16.4732 8.40215 15.5355 7.46447C14.5979 6.52678 13.3261 6 12 6ZM12.027 8V10C11.497 10 11.062 10.4 11.006 10.915L11 11.027V12H9V11.027C9 9.415 10.26 8.097 11.85 8.005L12.026 8H12.027ZM6.616 2.567L7.116 3.433C7.1827 3.54677 7.22623 3.67261 7.2441 3.80327C7.26196 3.93394 7.25381 4.06685 7.2201 4.19435C7.18639 4.32185 7.12779 4.44142 7.04769 4.54618C6.96758 4.65094 6.86754 4.73882 6.75333 4.80476C6.63912 4.87071 6.51299 4.9134 6.38221 4.9304C6.25143 4.9474 6.11858 4.93836 5.99131 4.90381C5.86403 4.86926 5.74485 4.80987 5.64063 4.72907C5.5364 4.64827 5.44918 4.54765 5.384 4.433L4.884 3.567C4.8173 3.45323 4.77377 3.32739 4.7559 3.19673C4.73804 3.06606 4.74619 2.93315 4.7799 2.80565C4.81361 2.67815 4.87221 2.55858 4.95231 2.45382C5.03242 2.34906 5.13246 2.26118 5.24667 2.19524C5.36088 2.12929 5.48701 2.0866 5.61779 2.0696C5.74857 2.0526 5.88142 2.06164 6.00869 2.09619C6.13597 2.13074 6.25515 2.19013 6.35937 2.27093C6.4636 2.35173 6.55082 2.45235 6.616 2.567ZM18.75 2.201C18.9797 2.33361 19.1473 2.55203 19.2159 2.8082C19.2845 3.06437 19.2486 3.33732 19.116 3.567L18.616 4.433C18.4824 4.66081 18.2642 4.82654 18.0089 4.89404C17.7536 4.96153 17.482 4.92531 17.2533 4.79327C17.0246 4.66124 16.8574 4.44411 16.7883 4.18926C16.7191 3.93442 16.7535 3.66256 16.884 3.433L17.384 2.567C17.5166 2.33733 17.735 2.16974 17.9912 2.1011C18.2474 2.03246 18.5203 2.0684 18.75 2.201ZM12 0C12.2652 0 12.5196 0.105357 12.7071 0.292893C12.8946 0.48043 13 0.734784 13 1V2C13 2.26522 12.8946 2.51957 12.7071 2.70711C12.5196 2.89464 12.2652 3 12 3C11.7348 3 11.4804 2.89464 11.2929 2.70711C11.1054 2.51957 11 2.26522 11 2V1C11 0.734784 11.1054 0.48043 11.2929 0.292893C11.4804 0.105357 11.7348 0 12 0V0Z" fill="black"/>
</svg>

<svg xmlns="http://www.w3.org/2000/svg" width="24" height="24" fill="none" viewBox="0 0 24 24">
  <path fill="#000" fill-rule="evenodd" d="M12 4a7 7 0 0 1 6.996 6.76L19 11v3.171a3.002 3.002 0 0 1 1.994 2.635L21 17v3H3v-3c0-1.306.835-2.418 2-2.83V11a7 7 0 0 1 7-7Zm6 12H6a1 1 0 0 0-.993.883L5 17v1h14v-1a1 1 0 0 0-.77-.974l-.113-.02L18 16ZM12 6a5 5 0 0 0-4.995 4.783L7 11v3h10v-3a5 5 0 0 0-5-5Zm.027 2v2c-.53 0-.965.4-1.021.915l-.006.112V12H9v-.973c0-1.612 1.26-2.93 2.85-3.022L12.026 8h.001ZM6.616 2.567l.5.866a1 1 0 1 1-1.732 1l-.5-.866a1 1 0 1 1 1.732-1Zm12.134-.366a1 1 0 0 1 .366 1.366l-.5.866a1 1 0 0 1-1.732-1l.5-.866a1 1 0 0 1 1.366-.366ZM12 0a1 1 0 0 1 1 1v1a1 1 0 0 1-2 0V1a1 1 0 0 1 1-1Z" clip-rule="evenodd"/>
</svg>
